src/lib/packages/icons/src/assets/filled/paypal.svg

<svg width="24" height="24" viewBox="0 0 24 24" fill="none" xmlns="http://www.w3.org/2000/svg">
<path d="M19.95 11.29C19.55 13.77 17.36 15.6 14.79 15.6H13.16C12.89 15.6 12.66 15.79 12.62 16.04L11.89 20.56C11.85 20.81 11.63 21 11.37 21H9.06C8.81 21 8.63001 20.78 8.67001 20.53L9.85001 13.38L10 12.5H12.55C12.9 12.5 13.23 12.47 13.57 12.41C13.71 12.39 13.85 12.36 13.99 12.32C14.82 12.12 15.57 11.74 16.2 11.22C16.33 11.13 16.45 11.02 16.56 10.9C16.66 10.81 16.75 10.71 16.85 10.61C17.03 10.42 17.19 10.21 17.33 9.98001C17.4 9.88001 17.47 9.77 17.53 9.66C17.61 9.52 17.69 9.37 17.76 9.22C17.85 9.04 17.92 8.85 17.98 8.66C18.02 8.55 18.05 8.43999 18.08 8.32999C18.09 8.27999 18.11 8.24 18.12 8.19C18.15 8.05 18.18 7.90999 18.2 7.76999C18.22 7.64999 18.24 7.52 18.24 7.41C18.24 7.42 18.25 7.42001 18.25 7.42001C19.51 8.27001 20.2 9.71001 19.95 11.29ZM17.09 5.98999C17.04 5.82999 16.96 5.65001 16.87 5.48001C16.21 4.24001 14.86 3.5 13.27 3.5H7.69C7.4 3.5 7.14001 3.71 7.10001 4L5.01001 16.91C5.01001 16.91 5 16.96 5 16.98C5 17.21 5.18999 17.4 5.42999 17.4H8.16L8.23999 16.9L8.98001 12.36C9.06001 11.86 9.48999 11.5 9.98999 11.5H12.55C14.9 11.5 16.86 9.86999 17.22 7.60999C17.24 7.44999 17.26 7.28 17.26 7.13C17.27 6.74001 17.21 6.35999 17.09 5.98999Z" fill="currentColor"/>
</svg>

<svg xmlns="http://www.w3.org/2000/svg" width="24" height="24" fill="none"><path fill="currentColor" d="M19.95 11.29c-.4 2.48-2.59 4.31-5.16 4.31h-1.63c-.27 0-.5.19-.54.44l-.73 4.52c-.04.25-.26.44-.52.44H9.06c-.25 0-.43-.22-.39-.47l1.18-7.15.15-.88h2.55c.35 0 .68-.03 1.02-.09.14-.02.28-.05.42-.09.83-.2 1.58-.58 2.21-1.1.13-.09.25-.2.36-.32.1-.09.19-.19.29-.29.18-.19.34-.4.48-.63a6.091 6.091 0 0 0 .43-.76c.09-.18.16-.37.22-.56.04-.11.07-.22.1-.33.01-.05.03-.09.04-.14.03-.14.06-.28.08-.42.02-.12.04-.25.04-.36 0 .01.01.01.01.01 1.26.85 1.95 2.29 1.7 3.87Zm-2.86-5.3a3.14 3.14 0 0 0-.22-.51c-.66-1.24-2.01-1.98-3.6-1.98H7.69c-.29 0-.55.21-.59.5L5.01 16.91s-.01.05-.01.07c0 .23.19.42.43.42h2.73l.08-.5.74-4.54c.08-.5.51-.86 1.01-.86h2.56c2.35 0 4.31-1.63 4.67-3.89.02-.16.04-.33.04-.48.01-.39-.05-.77-.17-1.14Z"/></svg>
